src/images/logo2.svg

<svg width="80" height="29" viewBox="0 0 80 29" fill="none" xmlns="http://www.w3.org/2000/svg">
<path fill-rule="evenodd" clip-rule="evenodd" d="M75.642 11.1175C75.642 10.2725 76.3091 9.56104 77.154 9.56104C77.9989 9.56104 78.6659 10.2725 78.6659 11.1175C78.6659 11.9624 77.9989 12.6739 77.154 12.6739C76.3091 12.7183 75.642 12.0068 75.642 11.1175ZM77.1095 12.3626C77.7321 12.3626 78.2657 11.829 78.2657 11.1619C78.2657 10.4949 77.7321 9.96126 77.1095 9.96126C76.4869 9.96126 75.9533 10.4949 75.9533 11.1619C75.9533 11.829 76.4869 12.3626 77.1095 12.3626ZM76.9316 11.829H76.6203V10.4504H77.1984C77.3319 10.4504 77.4653 10.4504 77.5542 10.5394C77.6876 10.6283 77.7321 10.7617 77.7321 10.8951C77.7321 11.073 77.6431 11.2064 77.5097 11.2509L77.7765 11.8734H77.3319L77.1095 11.3398H76.8872V11.829H76.9316ZM76.9316 11.0285H77.1095C77.1985 11.0285 77.2429 11.0285 77.2874 10.984C77.3319 10.9396 77.3763 10.8951 77.3763 10.8062C77.3763 10.7617 77.3319 10.6728 77.2874 10.6728C77.2429 10.6283 77.154 10.6283 77.1095 10.6283H76.9316V11.0285Z" fill="#FD0C15"/>
<path fill-rule="evenodd" clip-rule="evenodd" d="M54.0745 0.578099L53.6743 3.29072C52.7849 2.80156 52.1179 2.62368 51.4064 2.62368C49.5387 2.62368 48.2046 4.53585 48.2046 7.24847C48.2046 9.11618 49.094 10.2724 50.5614 10.2724C51.184 10.2724 51.851 10.05 52.696 9.64981L52.2513 12.4958C51.3174 12.7626 50.7393 12.8516 50.0278 12.8516C47.3152 12.8516 45.6254 10.806 45.6254 7.51529C45.6254 3.06837 47.9378 0 51.3174 0C51.7621 0 52.1179 0.0444692 52.4736 0.133407L53.5409 0.400222C53.7632 0.489161 53.8522 0.489161 54.0745 0.578099Z" fill="#FD0C15"/>
<path fill-rule="evenodd" clip-rule="evenodd" d="M45.6698 2.44584C45.5809 2.40137 45.492 2.40137 45.403 2.40137C44.6026 2.40137 44.1134 2.84606 43.313 4.04673L43.5353 2.53477H41.3119L39.7554 12.5848H42.2902C43.224 6.40359 43.4464 5.3808 44.647 5.3808C44.736 5.3808 44.736 5.3808 44.8249 5.3808C45.0473 4.18013 45.3585 3.29075 45.8032 2.44584H45.6698Z" fill="#FD0C15"/>
<path fill-rule="evenodd" clip-rule="evenodd" d="M30.5947 12.4515C29.9277 12.6739 29.3496 12.8073 28.7715 12.8073C27.4819 12.8073 26.7704 12.0513 26.7704 10.5838C26.7704 10.317 26.8149 10.0057 26.8593 9.64996L27.0372 8.67164L27.1706 7.8712L28.2823 1.02295H30.7726L30.4613 2.49043H31.7509L31.3952 4.93623H30.1056L29.4385 9.11633C29.3941 9.29421 29.3941 9.42762 29.3941 9.51656C29.3941 10.0502 29.6609 10.2725 30.239 10.2725C30.5503 10.2725 30.7281 10.2281 30.906 10.1836L30.5947 12.4515Z" fill="#FD0C15"/>
<path fill-rule="evenodd" clip-rule="evenodd" d="M20.6782 5.6921C20.6782 6.98171 21.2563 7.82662 22.5903 8.49366C23.6131 8.98282 23.791 9.16069 23.791 9.60538C23.791 10.228 23.3463 10.5392 22.368 10.5392C21.612 10.5392 20.945 10.4058 20.1001 10.139L19.7443 12.4514L19.8777 12.4959L20.3224 12.5848C20.5003 12.6293 20.6782 12.6738 20.9895 12.6738C21.5676 12.7182 22.0567 12.7627 22.368 12.7627C25.0362 12.7627 26.2368 11.6954 26.2368 9.42751C26.2368 8.04896 25.7477 7.24852 24.4581 6.62595C23.3908 6.13679 23.3019 6.00338 23.3019 5.51422C23.3019 4.98059 23.7021 4.71378 24.547 4.71378C25.0362 4.71378 25.7032 4.80272 26.3702 4.89166L26.726 2.57926C26.0589 2.44585 25.0806 2.35691 24.5025 2.35691C21.612 2.31244 20.6337 3.8244 20.6782 5.6921Z" fill="#FD0C15"/>
<path fill-rule="evenodd" clip-rule="evenodd" d="M74.1746 12.5846H71.7732L71.9066 11.6063C71.2396 12.3623 70.4836 12.718 69.5943 12.718C67.7266 12.718 66.5259 11.0727 66.5259 8.53794C66.5259 5.20275 68.3936 2.35672 70.617 2.35672C71.5954 2.35672 72.3069 2.80141 73.0184 3.73527L73.552 0.177734H76.0423L74.1746 12.5846ZM70.4392 10.2278C71.6398 10.2278 72.4403 8.84922 72.4403 6.84811C72.4403 5.5585 71.9511 4.847 71.1062 4.847C69.95 4.847 69.1496 6.27001 69.1496 8.22665C69.1496 9.51626 69.5943 10.2278 70.4392 10.2278Z" fill="#FD0C15"/>
<path fill-rule="evenodd" clip-rule="evenodd" d="M38.5992 12.3626C37.7543 12.6294 36.9094 12.7628 36.02 12.7628C33.2185 12.7628 31.751 11.2064 31.751 8.22697C31.751 4.75837 33.6187 2.22363 36.1534 2.22363C38.2435 2.22363 39.5331 3.64665 39.5331 5.91457C39.5331 6.62608 39.4441 7.38205 39.2218 8.40484H34.1523C34.1078 8.58272 34.1078 8.62719 34.1078 8.71613C34.1078 9.9168 34.8638 10.4949 36.3313 10.4949C37.2207 10.4949 38.0211 10.2725 38.955 9.87233L38.5992 12.3626ZM37.1762 6.35926C37.2207 6.13692 37.2207 5.95904 37.2207 5.8701C37.2207 5.06966 36.776 4.5805 36.02 4.5805C35.2196 4.5805 34.6415 5.20307 34.4191 6.40373H37.1762V6.35926Z" fill="#FD0C15"/>
<path fill-rule="evenodd" clip-rule="evenodd" d="M10.5392 12.5846H8.04893L9.47194 3.06819L6.22569 12.5846H4.53586L4.31352 3.11266L2.80157 12.5846H0.444702L2.40134 0.222168H6.00335L6.13675 7.87086L8.58256 0.222168H12.4958L10.5392 12.5846Z" fill="#FD0C15"/>
<path fill-rule="evenodd" clip-rule="evenodd" d="M17.0317 8.09349C16.7649 8.04902 16.6315 8.04902 16.4536 8.04902C15.0306 8.04902 14.3191 8.58265 14.3191 9.56097C14.3191 10.1835 14.6748 10.5838 15.2529 10.5838C16.2312 10.6282 16.9872 9.56097 17.0317 8.09349ZM18.8549 12.5849H16.7649L16.8093 11.5176C16.1868 12.3625 15.3419 12.7183 14.1412 12.7183C12.7626 12.7183 11.8288 11.6066 11.8288 9.96119C11.8288 7.51539 13.4742 6.09238 16.2757 6.09238C16.587 6.09238 16.9427 6.13685 17.2985 6.18132C17.3874 5.82556 17.3874 5.69216 17.3874 5.51428C17.3874 4.84724 16.9427 4.58043 15.7865 4.58043C15.075 4.58043 14.2746 4.71383 13.6965 4.89171L13.3852 5.02512L13.1629 5.11406L13.5186 2.84613C14.7638 2.44591 15.6087 2.3125 16.5425 2.3125C18.7215 2.3125 19.8332 3.33529 19.8332 5.24746C19.8332 5.73662 19.7888 6.09238 19.6109 7.24858L19.0773 10.8061L18.9883 11.4287L18.9439 11.9623L18.8994 12.3181L18.8549 12.5849Z" fill="#FD0C15"/>
<path fill-rule="evenodd" clip-rule="evenodd" d="M58.4325 8.09352C58.1657 8.04906 58.0323 8.04906 57.8544 8.04906C56.4314 8.04906 55.6754 8.58269 55.6754 9.56101C55.6754 10.1836 56.0312 10.5838 56.6093 10.5838C57.6321 10.6283 58.388 9.56101 58.4325 8.09352ZM60.2557 12.5849H58.1657L58.2102 11.5176C57.5876 12.3626 56.7427 12.7183 55.542 12.7183C54.1635 12.7183 53.2296 11.6066 53.2296 9.96123C53.2296 7.51543 54.875 6.09241 57.6765 6.09241C57.9433 6.09241 58.3436 6.13688 58.6993 6.18135C58.7883 5.8256 58.7883 5.69219 58.7883 5.51431C58.7883 4.84728 58.3436 4.58046 57.1874 4.58046C56.4759 4.58046 55.6754 4.71387 55.0973 4.89175L54.7416 4.98068L54.5192 5.06962L54.875 2.8017C56.1201 2.40147 56.965 2.26807 57.8989 2.26807C60.0779 2.26807 61.1896 3.29086 61.1896 5.20303C61.1896 5.69219 61.1451 6.04794 60.9672 7.20414L60.4336 10.7617L60.3447 11.3842L60.2557 11.8734L60.2113 12.2292L60.2557 12.5849Z" fill="#FD0C15"/>
<path fill-rule="evenodd" clip-rule="evenodd" d="M67.2819 2.44584C67.1929 2.40137 67.104 2.40137 67.0151 2.40137C66.2146 2.40137 65.7254 2.84606 64.925 4.04673L65.1473 2.53477H62.8794L61.323 12.5848H63.8577C64.7916 6.40359 65.0139 5.3808 66.2146 5.3808C66.3035 5.3808 66.3035 5.3808 66.3925 5.3808C66.6148 4.18013 66.9261 3.29075 67.3708 2.44584H67.2819Z" fill="#FD0C15"/>
<path fill-rule="evenodd" clip-rule="evenodd" d="M56.6982 22.3679C56.6982 24.6358 55.9867 26.0144 54.875 26.0144C54.0745 26.0588 53.5854 25.125 53.5854 23.7909C53.5854 22.19 54.2969 20.3668 55.4531 20.3668C56.3869 20.3223 56.6982 21.3006 56.6982 22.3679ZM59.1885 22.3679C59.1885 19.8331 57.9433 17.832 55.5865 17.832C52.8739 17.832 51.0951 20.2334 51.0951 23.7464C51.0951 26.2812 52.1624 28.3712 54.6971 28.3712C57.3208 28.4157 59.1885 26.5925 59.1885 22.3679Z" fill="#F3AE12"/>
<path fill-rule="evenodd" clip-rule="evenodd" d="M51.9399 16.0976L51.5397 18.8102C50.6948 18.3211 50.1167 18.1432 49.4497 18.1432C47.7154 18.1432 46.4702 20.0554 46.4702 22.768C46.4702 24.6357 47.2707 25.7919 48.6492 25.7919C49.2273 25.7919 49.8943 25.5696 50.6503 25.1693L50.2501 28.0154C49.4052 28.2822 48.8271 28.3711 48.16 28.3711C45.6253 28.3711 44.0244 26.3255 44.0244 23.0348C44.0244 18.5879 46.2034 15.5195 49.3607 15.5195C49.7609 15.5195 50.1167 15.564 50.428 15.6529L51.4063 15.9198C51.6286 15.9642 51.7176 16.0087 51.9399 16.0976Z" fill="#F3AE12"/>
<path fill-rule="evenodd" clip-rule="evenodd" d="M36.3313 17.9209C36.2423 17.8765 36.1534 17.8765 36.0645 17.8765C35.3085 17.8765 34.8638 18.3212 34.1078 19.5218L34.3302 18.0099H32.1957L30.7726 28.0599H33.1295C34.0189 21.9232 34.2412 20.8559 35.353 20.8559C35.4419 20.8559 35.4419 20.8559 35.5308 20.9004C35.7532 19.6997 36.02 18.8103 36.4202 17.9654L36.3313 17.9209Z" fill="#F3AE12"/>
<path fill-rule="evenodd" clip-rule="evenodd" d="M67.104 27.9713H64.8805L65.0139 26.993C64.3913 27.749 63.6798 28.1048 62.8349 28.1048C61.1451 28.1048 59.9889 26.4594 59.9889 23.9247C59.9889 20.5895 61.7677 17.7434 63.8132 17.7434C64.7471 17.7434 65.4141 18.1881 66.0812 19.122L66.6148 15.5645H68.9272L67.104 27.9713ZM63.5909 25.6145C64.7026 25.6145 65.4586 24.2359 65.4586 22.2348C65.4586 20.9452 65.0139 20.2782 64.2135 20.2782C63.1462 20.2782 62.3902 21.6567 62.3902 23.6578C62.3902 24.9474 62.7905 25.6145 63.5909 25.6145Z" fill="#F3AE12"/>
<path fill-rule="evenodd" clip-rule="evenodd" d="M14.2746 27.9266C13.4741 28.1934 12.7182 28.3268 11.8733 28.3268C9.24958 28.3268 7.87103 26.7704 7.87103 23.7909C7.87103 20.3668 9.60533 17.7876 11.9622 17.7876C13.9188 17.7876 15.1195 19.2106 15.1195 21.4785C15.1195 22.19 15.0306 22.946 14.8082 23.9688H10.139C10.0945 24.1467 10.0945 24.1912 10.0945 24.2801C10.0945 25.4363 10.806 26.0144 12.1845 26.0144C13.0295 26.0144 13.7854 25.792 14.6303 25.3918L14.2746 27.9266ZM12.9405 21.9677C12.9405 21.7454 12.985 21.5675 12.985 21.4785C12.985 20.6781 12.5848 20.1889 11.8733 20.1889C11.1173 20.1889 10.5837 20.8115 10.3613 22.0122H12.9405V21.9677Z" fill="#F3AE12"/>
<path fill-rule="evenodd" clip-rule="evenodd" d="M42.2902 27.9266C41.4897 28.1934 40.7337 28.3268 39.8888 28.3268C37.2207 28.3268 35.8866 26.7704 35.8866 23.7909C35.8866 20.3668 37.6209 17.7876 39.9778 17.7876C41.9344 17.7876 43.1795 19.2106 43.1795 21.4785C43.1795 22.19 43.0906 22.946 42.8683 23.9688H38.1545C38.1101 24.1467 38.1101 24.1912 38.1101 24.2801C38.1101 25.4363 38.8216 26.0144 40.2001 26.0144C41.045 26.0144 41.801 25.792 42.6459 25.3918L42.2902 27.9266ZM40.9561 21.9677C41.0005 21.7454 41.0005 21.5675 41.0005 21.4785C41.0005 20.6781 40.6003 20.1889 39.8888 20.1889C39.1328 20.1889 38.5992 20.8115 38.3769 22.0122H40.9561V21.9677Z" fill="#F3AE12"/>
<path fill-rule="evenodd" clip-rule="evenodd" d="M75.1084 27.9266C74.3079 28.1934 73.5075 28.3268 72.7071 28.3268C70.0834 28.3268 68.7048 26.7704 68.7048 23.7909C68.7048 20.3668 70.4836 17.7876 72.8405 17.7876C74.7971 17.7876 75.9978 19.2106 75.9978 21.4785C75.9978 22.19 75.9088 22.946 75.6865 23.9688H71.0172C70.9728 24.1467 70.9728 24.1912 70.9728 24.2801C70.9728 25.4363 71.6843 26.0144 73.0628 26.0144C73.9077 26.0144 74.6637 25.792 75.5086 25.3918L75.1084 27.9266ZM73.7743 21.9677C73.7743 21.7454 73.8188 21.5675 73.8188 21.4785C73.8188 20.6781 73.4186 20.1889 72.7071 20.1889C71.9511 20.1889 71.4174 20.8115 71.1951 22.0122H73.7743V21.9677Z" fill="#F3AE12"/>
<path fill-rule="evenodd" clip-rule="evenodd" d="M7.29294 18.3658C6.84825 18.0545 6.18121 17.7877 5.3363 17.7877C4.35798 17.7877 3.64647 18.01 3.64647 18.9883C3.64647 20.7671 7.11506 20.1001 7.11506 23.9244C7.11506 27.393 4.84714 28.3269 2.75709 28.3269C1.82324 28.3269 0.755976 28.0156 0 27.6598L0.578099 25.1251C1.06726 25.5698 2.00111 25.8366 2.80156 25.8366C3.55753 25.8366 4.71373 25.6142 4.71373 24.3246C4.71373 22.2791 1.24514 23.035 1.24514 19.4775C1.24514 16.2313 3.29072 15.2529 5.24736 15.2529C6.35909 15.2529 7.38188 15.4308 8.00445 15.831L7.29294 18.3658Z" fill="#F3AE12"/>
<path fill-rule="evenodd" clip-rule="evenodd" d="M21.1673 27.9265C20.6781 28.1488 20.0111 28.3267 19.0773 28.3267C17.0317 28.3267 15.7421 26.2811 15.7421 23.7464C15.7421 20.4557 17.6098 17.8765 20.3224 17.8765C20.9005 17.8765 21.8343 18.1433 22.5458 18.5435L22.0122 20.9448C21.4786 20.5891 20.945 20.4112 20.4113 20.4112C19.1662 20.4112 18.2323 21.5674 18.2323 23.613C18.2323 24.8137 18.8994 25.792 19.9222 25.792C20.5447 25.792 20.9894 25.6586 21.4786 25.3473L21.1673 27.9265Z" fill="#F3AE12"/>
<path fill-rule="evenodd" clip-rule="evenodd" d="M29.9722 25.3916C29.8388 26.2366 29.7499 27.0815 29.6609 27.9709H27.393L27.5709 26.37H27.5264C26.8149 27.4817 26.1034 28.2377 24.7693 28.2377C23.3463 28.2377 22.5903 26.7257 22.5903 24.8135C22.5903 24.1465 22.6348 23.7463 22.7682 22.7235L23.3908 18.0542H25.9255L25.3029 22.7235C25.214 23.2127 25.1251 23.7463 25.1251 24.2354C25.1251 24.8135 25.3919 25.4361 26.1034 25.3916C27.1262 25.3916 27.7488 24.1465 27.9266 22.6346L28.6381 18.0098H31.0839L29.9722 25.3916Z" fill="#F3AE12"/>
<path fill-rule="evenodd" clip-rule="evenodd" d="M77.4652 27.882H77.065V26.2366H76.5314V25.8809H77.9989V26.2366H77.4652V27.882Z" fill="#F3AE12"/>
<path fill-rule="evenodd" clip-rule="evenodd" d="M80 27.882H79.6443V26.1921L79.2885 27.882H78.9328L78.577 26.1921V27.882H78.2213V25.8809H78.7994L79.1106 27.4817H79.1551L79.4664 25.8809H80V27.882Z" fill="#F3AE12"/>
</svg>

<svg width="80" height="29" fill="none" xmlns="http://www.w3.org/2000/svg"><path fill-rule="evenodd" clip-rule="evenodd" d="M75.642 11.117c0-.845.667-1.556 1.512-1.556s1.512.712 1.512 1.556c0 .845-.667 1.557-1.512 1.557-.845.044-1.512-.667-1.512-1.556zm1.468 1.246c.622 0 1.156-.534 1.156-1.201s-.534-1.2-1.157-1.2c-.622 0-1.156.533-1.156 1.2 0 .667.534 1.2 1.156 1.2zm-.178-.534h-.312V10.45h.578c.134 0 .267 0 .356.09a.404.404 0 01.178.355c0 .178-.089.311-.222.356l.266.622h-.444l-.222-.533h-.223v.489h.045zm0-.8h.177c.09 0 .134 0 .178-.045.045-.044.09-.089.09-.178 0-.044-.045-.133-.09-.133-.044-.045-.133-.045-.178-.045h-.177v.4zM54.075.578l-.4 2.713c-.89-.49-1.557-.667-2.269-.667-1.867 0-3.201 1.912-3.201 4.624 0 1.868.889 3.024 2.356 3.024.623 0 1.29-.222 2.135-.622l-.445 2.846c-.934.267-1.512.356-2.223.356-2.713 0-4.403-2.046-4.403-5.337C45.625 3.068 47.938 0 51.317 0c.445 0 .8.044 1.157.133L53.54.4c.222.09.311.09.534.178zM45.67 2.446c-.09-.045-.178-.045-.267-.045-.8 0-1.29.445-2.09 1.646l.222-1.512h-2.223l-1.557 10.05h2.535c.934-6.181 1.156-7.204 2.357-7.204h.178c.222-1.2.533-2.09.978-2.935h-.133zM30.595 12.451c-.667.223-1.245.356-1.823.356-1.29 0-2.002-.756-2.002-2.223 0-.267.045-.578.09-.934l.177-.978.134-.8 1.111-6.85h2.49l-.31 1.468h1.289l-.356 2.446h-1.29l-.666 4.18c-.045.178-.045.312-.045.4 0 .534.267.757.845.757.311 0 .49-.045.667-.09l-.311 2.268zm-9.917-6.759c0 1.29.578 2.135 1.912 2.802 1.023.489 1.201.667 1.201 1.111 0 .623-.445.934-1.423.934-.756 0-1.423-.133-2.268-.4l-.356 2.312.134.045.444.089c.178.044.356.089.668.089.578.044 1.067.089 1.378.089 2.668 0 3.869-1.068 3.869-3.335 0-1.379-.49-2.18-1.779-2.802-1.067-.49-1.156-.623-1.156-1.112 0-.533.4-.8 1.245-.8.49 0 1.156.089 1.823.178l.356-2.313a13.442 13.442 0 00-2.223-.222c-2.891-.045-3.87 1.467-3.825 3.335zm53.497 6.893h-2.402l.134-.979c-.667.756-1.423 1.112-2.313 1.112-1.867 0-3.068-1.645-3.068-4.18 0-3.335 1.868-6.181 4.091-6.181.978 0 1.69.444 2.401 1.378l.534-3.557h2.49l-1.867 12.407zm-3.736-2.357c1.2 0 2.001-1.379 2.001-3.38 0-1.29-.489-2.001-1.334-2.001-1.156 0-1.956 1.423-1.956 3.38 0 1.29.444 2 1.29 2zM38.6 12.363c-.846.266-1.69.4-2.58.4-2.802 0-4.269-1.557-4.269-4.536 0-3.469 1.868-6.003 4.402-6.003 2.09 0 3.38 1.423 3.38 3.69 0 .712-.089 1.468-.311 2.49h-5.07c-.044.179-.044.223-.044.312 0 1.2.756 1.779 2.223 1.779.89 0 1.69-.222 2.624-.623l-.356 2.49zm-1.424-6.004c.045-.222.045-.4.045-.489 0-.8-.445-1.29-1.201-1.29-.8 0-1.379.623-1.6 1.824h2.756v-.045zM10.54 12.585H8.048l1.423-9.517-3.246 9.517h-1.69l-.222-9.472-1.512 9.472H.445L2.4.222h3.602l.134 7.649L8.583.222h3.913l-1.957 12.363zm6.492-4.492c-.267-.044-.4-.044-.578-.044-1.423 0-2.135.534-2.135 1.512 0 .623.356 1.023.934 1.023.978.044 1.734-1.023 1.779-2.49zm1.823 4.492h-2.09l.044-1.067c-.622.845-1.467 1.2-2.668 1.2-1.378 0-2.312-1.111-2.312-2.757 0-2.446 1.645-3.869 4.447-3.869.311 0 .667.045 1.023.09.088-.356.088-.49.088-.668 0-.667-.444-.934-1.6-.934-.712 0-1.512.134-2.09.312l-.312.133-.222.09.356-2.269c1.245-.4 2.09-.534 3.024-.534 2.178 0 3.29 1.023 3.29 2.935 0 .49-.044.845-.222 2.002l-.534 3.557-.089.623-.044.533-.045.356-.044.267zm39.577-4.491c-.266-.045-.4-.045-.578-.045-1.423 0-2.179.534-2.179 1.512 0 .623.356 1.023.934 1.023 1.023.044 1.779-1.023 1.823-2.49zm1.824 4.49h-2.09l.044-1.066c-.622.845-1.467 1.2-2.668 1.2-1.379 0-2.312-1.111-2.312-2.757 0-2.446 1.645-3.869 4.447-3.869.266 0 .667.045 1.022.09.09-.356.09-.49.09-.668 0-.667-.445-.934-1.602-.934-.711 0-1.512.134-2.09.312l-.355.089-.223.089.356-2.268c1.245-.4 2.09-.534 3.024-.534 2.179 0 3.29 1.023 3.29 2.935 0 .49-.044.845-.222 2.001l-.533 3.558-.09.622-.088.49-.045.355.045.356zm7.026-10.138c-.09-.045-.178-.045-.267-.045-.8 0-1.29.445-2.09 1.646l.222-1.512H62.88l-1.556 10.05h2.535c.934-6.181 1.156-7.204 2.357-7.204h.177c.223-1.2.534-2.09.979-2.935h-.09z" fill="#FD0C15"/><path fill-rule="evenodd" clip-rule="evenodd" d="M56.698 22.368c0 2.268-.711 3.646-1.823 3.646-.8.045-1.29-.889-1.29-2.223 0-1.601.712-3.424 1.868-3.424.934-.045 1.245.934 1.245 2zm2.49 0c0-2.535-1.245-4.536-3.602-4.536-2.712 0-4.49 2.401-4.49 5.914 0 2.535 1.066 4.625 3.601 4.625 2.624.045 4.491-1.778 4.491-6.003z" fill="#F3AE12"/><path fill-rule="evenodd" clip-rule="evenodd" d="M51.94 16.098l-.4 2.712c-.845-.489-1.423-.667-2.09-.667-1.735 0-2.98 1.912-2.98 4.625 0 1.868.8 3.024 2.18 3.024.577 0 1.244-.222 2-.623l-.4 2.846c-.845.267-1.423.356-2.09.356-2.535 0-4.136-2.045-4.136-5.336 0-4.447 2.18-7.515 5.337-7.515.4 0 .756.044 1.067.133l.978.267c.223.044.312.089.534.178zM36.331 17.92c-.089-.044-.178-.044-.267-.044-.755 0-1.2.445-1.956 1.646l.222-1.512h-2.134l-1.423 10.05h2.357c.889-6.137 1.111-7.204 2.223-7.204.089 0 .089 0 .178.044.222-1.2.489-2.09.89-2.935l-.09-.044zm30.773 10.051H64.88l.134-.978c-.623.756-1.334 1.112-2.18 1.112-1.689 0-2.845-1.646-2.845-4.18 0-3.335 1.779-6.182 3.824-6.182.934 0 1.601.445 2.268 1.379l.534-3.557h2.312L67.104 27.97zm-3.513-2.357c1.112 0 1.868-1.378 1.868-3.38 0-1.289-.445-1.956-1.246-1.956-1.067 0-1.823 1.379-1.823 3.38 0 1.29.4 1.956 1.2 1.956zm-49.316 2.313c-.8.266-1.557.4-2.402.4-2.623 0-4.002-1.557-4.002-4.536 0-3.424 1.734-6.003 4.091-6.003 1.957 0 3.158 1.423 3.158 3.69 0 .712-.09 1.468-.312 2.49H10.14c-.044.179-.044.223-.044.312 0 1.156.711 1.734 2.09 1.734.845 0 1.6-.222 2.445-.622l-.355 2.535zm-1.335-5.96c0-.222.045-.4.045-.488 0-.8-.4-1.29-1.112-1.29-.756 0-1.29.622-1.512 1.823h2.58v-.044zm29.35 5.96c-.8.266-1.556.4-2.401.4-2.668 0-4.002-1.557-4.002-4.536 0-3.424 1.734-6.003 4.09-6.003 1.957 0 3.203 1.423 3.203 3.69 0 .712-.09 1.468-.312 2.49h-4.714c-.044.179-.044.223-.044.312 0 1.156.712 1.734 2.09 1.734.845 0 1.601-.222 2.446-.622l-.356 2.535zm-1.334-5.96c.044-.222.044-.4.044-.488 0-.8-.4-1.29-1.111-1.29-.756 0-1.29.622-1.512 1.823h2.58v-.044zm34.152 5.96c-.8.266-1.6.4-2.4.4-2.625 0-4.003-1.557-4.003-4.536 0-3.424 1.779-6.003 4.136-6.003 1.956 0 3.157 1.423 3.157 3.69 0 .712-.09 1.468-.312 2.49h-4.669c-.044.179-.044.223-.044.312 0 1.156.711 1.734 2.09 1.734.845 0 1.6-.222 2.446-.622l-.4 2.535zm-1.334-5.96c0-.222.045-.4.045-.488 0-.8-.4-1.29-1.112-1.29-.756 0-1.29.622-1.512 1.823h2.58v-.044zM7.293 18.366c-.445-.311-1.112-.578-1.957-.578-.978 0-1.69.222-1.69 1.2 0 1.78 3.47 1.112 3.47 4.936 0 3.469-2.269 4.403-4.359 4.403-.934 0-2.001-.311-2.757-.667l.578-2.535c.49.445 1.423.712 2.224.712.756 0 1.912-.223 1.912-1.512 0-2.046-3.469-1.29-3.469-4.848 0-3.246 2.046-4.224 4.002-4.224 1.112 0 2.135.178 2.757.578l-.711 2.535zm13.874 9.561c-.489.222-1.156.4-2.09.4-2.045 0-3.335-2.046-3.335-4.58 0-3.291 1.868-5.87 4.58-5.87.579 0 1.512.266 2.224.667l-.534 2.4c-.533-.355-1.067-.533-1.6-.533-1.246 0-2.18 1.156-2.18 3.202 0 1.2.667 2.179 1.69 2.179.623 0 1.067-.133 1.557-.445l-.312 2.58zm8.805-2.535c-.133.845-.222 1.69-.311 2.579h-2.268l.178-1.601h-.045c-.711 1.112-1.423 1.868-2.757 1.868-1.423 0-2.179-1.512-2.179-3.424 0-.668.045-1.068.178-2.09l.623-4.67h2.535l-.623 4.67c-.089.489-.178 1.022-.178 1.511 0 .579.267 1.201.978 1.157 1.023 0 1.646-1.245 1.824-2.757l.711-4.625h2.446l-1.112 7.382zm47.493 2.49h-.4v-1.645h-.534v-.356H78v.356h-.534v1.645zm2.535 0h-.356v-1.69l-.356 1.69h-.355l-.356-1.69v1.69h-.356v-2.001h.578l.312 1.6h.044l.311-1.6H80v2.001z" fill="#F3AE12"/></svg>
